X:419
T:Schottische a Bethanie
M:2/4
L:1/8
S: http://lesters-tune-a-day.blogspot.co.uk/2012/12/tune-108-schottische-bethanie.html
S: http://bellowsandstrings.blogspot.com/2010/05/schottische-bethanie.html
K:Em
|:\
"Em"E2GB E2GB | "C"c2BA "Bm"B4 | "C"cded "D"c2BA | "Em"G2A2 B2E2 |\
"Em"E2GB E2GB | "C"c2BA "Bm"B4 | "C"cded "D"c2BA | "Em"G2gf e4 :||
|:\
"C"e2fg f2e2 | "G"dedc B4 | "C"cded "D"c2BA | "Em"G2A2 B2E2 |\
"C"e2fg f2e2 | "G"dedc B4 | "C"cded "D"c2BA | "Em"G2gf e4 :||
